!!!COM: Bach, Johann Sebastian
!!!OPR: Joh. Seb. Bachs vierstimmige Choralges‰nge
!!!XEN: Four-part Chorales
!!!OTL: 90. Hilf, Gott, lass mir's gelingen
!!!SCT: BWV 343
!!!SCA: Thematisch-systematisches Verzeichnis der musikalischen Werke Johann Sebastian Bach: Bach-Werke-Verzeichnis (Schmieder)
!!!YOR: Bach Gesellschaft Edition xxxix
!!!ENC: Steven Rasmussen
!!!CDT: 1685/3//-1750/7/28/
!!!OCY: Deutschland
!!!YEC: Copyright (c) 1994, 2000 Center for Computer Assisted Research in the Humanities
!!!YEM: Rights to all derivative editions reserved
!!!YEN: United States of America
**kern	**silbe	**kern	**silbe	**kern	**silbe	**kern	**silbe
*I:[BASSO]	*I:[BASSO]	*I:[TENORE]	*I:[TENORE]	*I:[ALTO]	*I:[ALTO]	*I:[SOPRANO]	*I:[SOPRANO]
*>[A,A,B]	*	*>[A,A,B]	*	*>[A,A,B]	*	*>[A,A,B]	*
*>A	*	*>A	*	*>A	*	*>A	*
*clefF4	*	*clefGv2	*	*clefG2	*	*clefG2	*
*k[b-]	*	*k[b-]	*	*k[b-]	*	*k[b-]	*
*d:	*	*d:	*	*d:	*	*d:	*
*M3/4	*	*M3/4	*	*M3/4	*	*M3/4	*
4G	.	4B-	.	8dL	.	4g	Hilf,die
.	.	.	.	8eJ	.	.	.
=1	=1	=1	=1	=1	=1	=1	=1
2F	.	2c	.	2f	.	2a	Gott,Wort'
4C	.	8.cL	.	8fL	.	4g	lassin
.	.	.	.	8eJ	.	.	.
.	.	16B-Jk	.	.	.	.	.
=2	=2	=2	=2	=2	=2	=2	=2
2D	.	(4A	.	4d	.	2f	mir'sReim'
.	.	4.F)	.	4A	.	.	.
4BB-	.	.	.	4B-	.	4d	ge-zu
.	.	8G	.	.	.	.	.
=3	=3	=3	=3	=3	=3	=3	=3
2AA	.	2A	.	8cL	.	2.f	-lin-brin-
.	.	.	.	8e-	.	.	.
.	.	.	.	8d	.	.	.
.	.	.	.	8cJ	.	.	.
4D	.	8GL	.	4Bn	.	.	.
.	.	8FJ	.	.	.	.	.
=4	=4	=4	=4	=4	=4	=4	=4
2C;	.	2c;	.	2e;	.	2g;	-gen,-gen,
4AA	.	4c	.	8eL	duzu	4a	duzu
.	.	.	.	8f#J	.	.	.
=5	=5	=5	=5	=5	=5	=5	=5
2GG	.	4.d	.	8gL	ed-Lob	2b-	ed-Lob
.	.	.	.	8f#J	.	.	.
.	.	.	.	[2g	.	.	.
.	.	8cL	.	.	.	.	.
4BB-	.	8B-	.	.	.	4dd	-lerdem
.	.	8AJ	.	.	.	.	.
=6	=6	=6	=6	=6	=6	=6	=6
2E-	.	8GL	.	4.g]	.	2cc	Sch√∂-Na-
.	.	8F#J	.	.	.	.	.
.	.	4G	.	.	.	.	.
.	.	.	.	8f#	.	.	.
4D	.	4d	.	4g	-lerdem	4b-	-pfer-men
=7	=7	=7	=7	=7	=7	=7	=7
4C	.	4e-	.	2g	Sch√∂-Na-	2.a	mein,dein,
4D	.	8dL	.	.	.	.	.
.	.	8AJ	.	.	.	.	.
4DD	.	8dL	.	4f#	-pfer-men	.	.
.	.	8cJ	.	.	.	.	.
=8	=8	=8	=8	=8	=8	=8	=8
2GG;	.	2B-;	.	2d;	mein,dein,	2g;	.
=:|!	=:|!	=:|!	=:|!	=:|!	=:|!	=:|!	=:|!
*>B	*	*>B	*	*>B	*	*>B	*
4E	.	8cL	dass	[4g	dass	4cc	dass
.	.	8B-J	.	.	.	.	.
=9	=9	=9	=9	=9	=9	=9	=9
4F	.	4A	ich	8gL]	.	2cc	ich
.	.	.	.	8fJ	.	.	.
4G	.	4B-	.	8fL	ich	.	.
.	.	.	.	8eJ	.	.	.
4A	mag	[4c	mag	[4f	mag	4cc	mag
=10	=10	=10	=10	=10	=10	=10	=10
2B-	fr√∂h-	4c]	.	8fL]	.	2dd	fr√∂h-
.	.	.	.	8eJ	.	.	.
.	.	4B-	fr√∂h-	8fL	fr√∂h-	.	.
.	.	.	.	8gJ	.	.	.
8FL	-lich	4c	-lich	8aL	-lich	4cc	-lich
8EJ	.	.	.	8gJ	.	.	.
=11	=11	=11	=11	=11	=11	=11	=11
8DL	he-	2d	he-	2f	he-	4b-	he-
8CJ	.	.	.	.	.	.	.
4BB-	.	.	.	.	.	4a	.
4C	-ben	8GL	-ben	8fL	-ben	4g	-ben
.	.	8cJ	.	8eJ	.	.	.
=12	=12	=12	=12	=12	=12	=12	=12
2FF;	.	2A;	.	2c;	.	2f;	an,
8BB-L	.	8B-L	.	4d	.	4f	von
8AAJ	.	8cJ	.	.	.	.	.
=13	=13	=13	=13	=13	=13	=13	=13
4GG	.	8dL	.	2g	.	2b-	dei-
.	.	8B-J	.	.	.	.	.
4G	.	4.e-	.	.	.	.	.
4F#	.	.	.	4a	.	4a	-nem
.	.	8d	.	.	.	.	.
=14	=14	=14	=14	=14	=14	=14	=14
4G	.	2d	.	8aL	.	2b-	Wort
.	.	.	.	8dJ	.	.	.
8FL	.	.	.	4g	.	.	.
8E-J	.	.	.	.	.	.	.
8DL	.	4e-	.	4a	.	4cc	zu
8CJ	.	.	.	.	.	.	.
=15	=15	=15	=15	=15	=15	=15	=15
4BB-	.	4f	.	8b-L	.	2dd	sin-
.	.	.	.	8aJ	.	.	.
4B-	.	8e-L	.	4.g	.	.	.
.	.	8dJ	.	.	.	.	.
4A	.	8e-L	.	.	.	4cc	.
.	.	8cJ	.	8f#	.	.	.
=16	=16	=16	=16	=16	=16	=16	=16
4G	.	8dL	.	4g	.	4.b-	.
.	.	8e-J	.	.	.	.	.
4F	.	8fL	.	4.d	.	.	.
.	.	8FJ	.	.	.	8a	.
4E-	.	4G	.	.	.	4g	.
.	.	.	.	8c	.	.	.
=17	=17	=17	=17	=17	=17	=17	=17
2D;	.	2A;	.	2d;	.	2f#;	-gen,
4D	.	[4d	Herr,	4f#	.	4a	Herr,
=18	=18	=18	=18	=18	=18	=18	=18
4.G	du	8dL]	.	2g	.	2b-	du
.	.	8B-J	.	.	.	.	.
.	.	4e-	du	.	.	.	.
8E-	.	.	.	.	.	.	.
[4B-	wollst	8dL	wollst	4f	.	4dd	wollst
.	.	8B-J	.	.	.	.	.
=19	=19	=19	=19	=19	=19	=19	=19
4B-]	.	4G	.	8eL	.	2cc	mir
.	.	.	.	8d	.	.	.
4A	mir	8cL	.	8e	.	.	.
.	.	8AJ	.	8f#J	.	.	.
4G	.	8B-L	.	4g	.	4b-	bei-
.	.	8dJ	.	.	.	.	.
=20	=20	=20	=20	=20	=20	=20	=20
4C	.	8e-L	.	2g	.	2.a	-stah'n.
.	.	8d	.	.	.	.	.
4AA	.	8c	.	.	.	.	.
.	.	8B-	.	.	.	.	.
4D	.	8c	.	4f#	.	.	.
.	.	8AJ	.	.	.	.	.
=21	=21	=21	=21	=21	=21	=21	=21
2GG;	.	2Bn;	.	2d;	.	2g;	.
==|!	==|!	==|!	==|!	==|!	==|!	==|!	==|!
*-	*-	*-	*-	*-	*-	*-	*-
!!!RWG: Key is interpreted using the Humdrum key tool.
!!!URL-pdf: https://s9.imslp.org/files/imglnks/usimg/6/6b/IMSLP24489-PMLP09471-CCARH_Bach_Chorales.pdf#page=63 Musedata edition
!!!URL-pdf: https://s9.imslp.org/files/imglnks/usimg/7/7a/IMSLP04155-Bach_-_BGA_253-438.pdf#page=48 	Bach-Gesellschaft Ausgabe, Band 39 (pp.175-276) Leipzig: Breitkopf und H‰rtel, 1892. Plate B.W. XXXIX.
!!!END: 1994/06/10
!!!EMD: Converted from MuseData to Humdrum Dec 19, 2000, by Andreas Kornstaedt using muse2kern.
!!!EED: Craig Stuart Sapp
!!!EEV: 2024/03/31
!!!ONB: Some non-unicode characters
!!!filter-keyboard: satb2gs
